X:15
T:Jem of Aberdeen
S:John Moore's Book 1
Z:Transcribed by Paul Barber-Riley  March 2016
M:2/4
L:1/8
K:G
%%VWML: Moore1-4493-p10-0
F:http://www.vwml.org/record/Moore1/4493/p10
d | B>cBA | BGGG | A>BAB | cedc |
B>cBA | BGGD | Eedc | BG G2:|
|:B>cBG | FAd2 | B>cBA | FA !fermata!dA |
d>efA | B>^cdB | A>BAG | FD Dd |
d>edB | cAAB | GEEA | F2Dd |
d>edB | cAAB | GEFA | !fermata!D3 d |
B>cBA | BGGG | dBBB | !fermata!g3f |
e>feg | dB A!fermata!g | AEEF | G3:|

